X:1
T:I Love to Walk with Jesus
T:I Love to Walk with Jesus
T:Charles Frederick Weigele
T:Charles Frederick Weigele, 1902
T:Public Domain Courtesy of the Cyber Hymnal™
T:Public Domain Courtesy of the Cyber Hymnal™
C:Charles Frederick Weigele
Z:Public Domain
Z:Courtesy of the Cyber Hymnal™
%%score ( 1 2 ) ( 3 4 )
L:1/8
Q:1/4=105
M:4/4
K:Ab
V:1 treble 
V:2 treble 
V:3 bass 
V:4 bass 
V:1
 E>E | [CA]>[CA] [CA]>[CA] [CA][CE] [A,C]>[CE] | [DF]>[DF] [DF]>[DF] [DF]2 E>E | %3
w: 1.~O I|love to walk with Je- sus Like the|pub- li- cans of old, When He|
w: 2.~O I|love with walk with Je- sus Like the|man of long a- go Who had|
w: 3.~O I|love to walk with Je- sus All the|way to Cal- vary’s brow, Gaze up-|
w: 4.~O some-|time I’ll walk with Je- sus In that|land of end- less day, When our|
 [DG]>[DB] [DB]>[DB] [DB][DG] [DF]>[DE] | [CA]>[CA] [CA][DB] !fermata![Ec]2 E>E | %5
w: ga- thered them a- bout Him And the|bless- èd tid- ings told; How He|
w: tar- ried by the way- side Near the|gates of Jer- i- cho, Je- sus|
w: on that scene of suf- fering While my|tears of sor- row flow. There He|
w: jour- ney here is o- ver And we’ve|reached our home to stay. Then I’ll|
 [CA]>[CA] [CA]>[CA] [CA][CE] [A,C]>[CE] | [DF]>[DF] [DF]>[DF] [DF]2 E>E | %7
w: came to bring de- liv- erance To the|cap- tives in dis- tress, Take a-|
w: heard his cry for mer- cy, Gave him|back his sight that day, And im-|
w: tells me how He loves me— Takes my|ev- ery sin a- way; So I|
w: walk with him for- ev- er, Sing His|prais- es o’er and o’er, And with|
 [DG]>[DB] [DB]>[DB] [DB][DG] [DF]>[DE] | [CA]>[CA] [DA][DA] !fermata![CA]2 || %9
w: way our ev- ery bur- den, Giv- ing|per- fect peace and rest.|
w: me- diate- ly he fol- lowed Je- sus|all a- long the way.|
w: fol- low Him so glad- ly, Lead me|an- y- where He may.|
w: all the saints in glo- ry Love, and|wor- ship, and a- dore.|
"^Refrain" [CE]>[CE] | [CA]2 [Ec]4 [EB]>[Ec] | [DB]2 [DF]4 [DE]>[DE] | [DG]2 [DB]4 [DF]>[DG] | %13
w: ||||
w: I will|fol- low where He|lead- eth; I will|pas- ture where He|
w: ||||
w: ||||
 [DF]2 [CE]4 [CE]>[CE] | [CA]2 [Ec]4 [_GB]>[Gc] | [Fd]2 [DF]4 [DB]>[Ec] | %16
w: |||
w: feed- eth. I will|fol- low all the|way, Lord. I will|
w: |||
w: |||
 [Fd]2 [DB]2 [DG][DG][DF][DG] | [CA]6 |] %18
w: ||
w: fol- low Je- sus ev- ery|day.|
w: ||
w: ||
V:2
 E>E | x8 | x6 E>E | x8 | x6 E>E | x8 | x6 E>E | x8 | x6 || x2 | x8 | x8 | x8 | x8 | x8 | x8 | x8 | %17
 x6 |] %18
V:3
 E,>E, | [A,,E,]>[A,,E,] [A,,E,]>[A,,E,] [A,,E,][A,,A,] [A,,E,]>[A,,A,] | %2
 [D,A,]>[D,A,] [D,A,]>[D,A,] [D,A,]2 [E,G,]>[E,G,] | %3
 [E,B,]>[E,G,] [E,G,]>[E,G,] [E,G,][E,B,] [E,A,]>[E,G,] | %4
 [A,,A,]>[A,,E,] [A,,E,][A,,E,] [A,,A,]2 E,>E, | %5
 [A,,E,]>[A,,E,] [A,,E,]>[A,,E,] [A,,E,][A,,A,] [A,,E,]>[A,,A,] | %6
 [D,A,]>[D,A,] [D,A,]>[D,A,] [D,A,]2 [E,G,]>[E,G,] | %7
 [E,B,]>[E,G,] [E,G,]>[E,G,] [E,G,][E,B,] [E,A,]>[E,G,] | %8
 [A,,A,]>[A,,E,] [A,,F,][A,,_F,] [A,,E,]2 || [A,,A,]>[A,,A,] | [A,,E,]2 [A,,A,]4 [C,_G,]>[C,G,] | %11
 [D,F,]2 [D,A,]4 [E,G,]>[E,G,] | [E,B,]2 [E,G,]4 [E,A,]>[E,B,] | %13
 [A,,A,]2 [A,,A,]4 [A,,A,]>[A,,A,] | [A,,E,]2 [A,,A,]4 [A,,A,]>[A,,A,] | %15
 [D,A,]2 [D,A,]4 [E,G,]>[E,G,] | [E,G,]2 [E,G,]2 [E,B,][E,B,]E,E, | [A,,E,]6 |] %18
V:4
 E,>E, | x8 | x8 | x8 | x6 E,>E, | x8 | x8 | x8 | x6 || x2 | x8 | x8 | x8 | x8 | x8 | x8 | %16
 x6 E,E, | x6 |] %18

